packages/heroicons/src/prism/manheim-medallion.svg

<!-- Generated by IcoMoon.io -->
<svg version="1.1" xmlns="http://www.w3.org/2000/svg" width="16" height="16" viewBox="0 0 16 16">
<title>manheim-medallion</title>
<path fill="#4a4a4a" d="M0 8c0 4.416 3.584 8 8 8s8-3.584 8-8c0-4.416-3.584-8-8-8s-8 3.584-8 8zM0.907 8c0-3.915 3.179-7.093 7.093-7.093s7.093 3.179 7.093 7.093-3.179 7.093-7.093 7.093c-3.915 0-7.093-3.179-7.093-7.093zM2.379 8c0 0.843 0.181 1.632 0.512 2.347l0.811-5.963c-0.821 0.971-1.323 2.24-1.323 3.616zM9.643 2.624c-0.523-0.16-1.067-0.245-1.643-0.245-0.469 0-0.928 0.064-1.365 0.171l1.536 5.099 1.472-5.024zM12.459 4.587l0.661 5.728c0.32-0.704 0.501-1.483 0.501-2.315 0-1.28-0.437-2.464-1.163-3.413zM8.768 13.227l-1.28-0.021-1.899-6.187-0.501 5.781c0.853 0.512 1.845 0.811 2.912 0.811 1.173 0 2.272-0.363 3.168-0.981l-0.469-5.845-1.931 6.443z"></path>
</svg>

<svg xmlns="http://www.w3.org/2000/svg" aria-hidden="true" fill="currentColor" viewBox="0 0 16 16">
  <path d="M0 8c0 4.416 3.584 8 8 8s8-3.584 8-8-3.584-8-8-8-8 3.584-8 8zm.907 0C.907 4.085 4.086.907 8 .907S15.093 4.086 15.093 8 11.914 15.093 8 15.093A7.097 7.097 0 01.907 8z"/>
  <path d="M2.379 8c0 .843.181 1.632.512 2.347l.811-5.963A5.598 5.598 0 002.379 8zm7.264-5.376a5.57 5.57 0 00-3.008-.074l1.536 5.099 1.472-5.024zm2.816 1.963l.661 5.728c.32-.704.501-1.483.501-2.315 0-1.28-.437-2.464-1.163-3.413z"/>
  <path d="M8.768 13.227l-1.28-.021-1.899-6.187-.501 5.781A5.633 5.633 0 008 13.611a5.578 5.578 0 003.168-.981l-.469-5.845-1.931 6.443z"/>
</svg>
